icons/device/tablet-landscape.svg

<svg width="32" height="32" viewBox="0 0 32 32" fill="none" xmlns="http://www.w3.org/2000/svg">
<path fill-rule="evenodd" clip-rule="evenodd" d="M2 26.0001C2 27.1047 2.89543 28.0001 4 28.0001H28C29.1046 28.0001 30 27.1047 30 26.0001V6.00009C30 4.89552 29.1046 4.00009 28 4.00009L4 4.00009C2.89543 4.00009 2 4.89552 2 6.00009L2 26.0001ZM4 26.0001L4 6.00009L28 6.00009V26.0001H4ZM26 20.0001V12.0001H24V20.0001H26Z" fill="black"/>
</svg>

<svg viewBox="0 0 32 32" xmlns="http://www.w3.org/2000/svg"><path fill-rule="evenodd" d="M2 26a2 2 0 002 2h24a2 2 0 002-2V6a2 2 0 00-2-2H4a2 2 0 00-2 2v20zm2 0V6h24v20H4zm22-6v-8h-2v8h2z"/></svg>
